brandFactory_export/2.Regular/Copiar_2Regular.svg

<?xml version="1.0" encoding="UTF-8"?>
<svg width="24px" height="24px" viewBox="0 0 24 24" version="1.1" xmlns="http://www.w3.org/2000/svg" xmlns:xlink="http://www.w3.org/1999/xlink">
    <title>2.Regular/Copiar_2Regular</title>
    <g id="Symbols" stroke="none" stroke-width="1" fill="none" fill-rule="evenodd">
        <g id="2.Regular/Copiar_2Regular" fill="#5CB615" fill-rule="nonzero">
            <path d="M22.0941176,21.8722689 C22.0941176,21.9966387 21.9932773,22.0941176 21.8722689,22.0941176 L8.47731092,22.0941176 C8.35294118,22.0941176 8.25546218,21.9932773 8.25546218,21.8722689 L8.25546218,16.897479 L15.0890756,16.897479 C16.087395,16.897479 16.9008403,16.0840336 16.9008403,15.0857143 L16.9008403,8.25210084 L21.8722689,8.25210084 C21.9966387,8.25210084 22.0941176,8.34957983 22.0941176,8.47394958 L22.0941176,21.8722689 Z M1.52941176,15.0890756 L1.52941176,1.81176471 C1.52941176,1.65714286 1.65714286,1.52941176 1.81176471,1.52941176 L15.0857143,1.52941176 C15.2403361,1.52941176 15.3680672,1.65714286 15.3680672,1.81176471 L15.3680672,15.0890756 C15.3680672,15.2436975 15.2403361,15.3714286 15.0857143,15.3714286 L1.80840336,15.3714286 C1.65378151,15.3680672 1.52941176,15.2436975 1.52941176,15.0890756 C1.52605042,15.0890756 1.52605042,15.0890756 1.52941176,15.0890756 Z M21.8722689,6.72268908 L16.897479,6.72268908 L16.897479,1.81176471 C16.897479,0.810084034 16.0840336,0 15.0857143,0 L1.80840336,0 C0.810084034,0 0,0.810084034 0,1.81176471 L0,15.0890756 C0,16.087395 0.813445378,16.9008403 1.81176471,16.9008403 L6.72268908,16.9008403 L6.72268908,21.8722689 C6.72268908,22.8369748 7.5092437,23.6235294 8.47394958,23.6235294 L21.8689076,23.6235294 C22.8369748,23.6235294 23.6201788,22.8369748 23.6201788,21.8722689 L23.6201788,8.47394958 C23.6235294,7.5092437 22.8369748,6.72268908 21.8722689,6.72268908 Z" id="Copiar_2Regular"></path>
        </g>
    </g>
</svg>

<svg width="24" height="24" viewBox="0 0 24 24" xmlns="http://www.w3.org/2000/svg"><path d="M22.094 21.872c0 .125-.1.222-.222.222H8.477a.222.222 0 01-.222-.222v-4.975h6.834c.998 0 1.812-.813 1.812-1.811V8.252h4.971a.22.22 0 01.222.222v13.398zM1.53 15.09V1.812c0-.155.128-.283.283-.283h13.274c.154 0 .282.128.282.283v13.277a.284.284 0 01-.282.282H1.808a.283.283 0 01-.279-.282c-.003 0-.003 0 0 0zm20.343-8.366h-4.975V1.812A1.813 1.813 0 0015.086 0H1.808A1.81 1.81 0 000 1.812v13.277c0 .998.813 1.812 1.812 1.812h4.91v4.971c0 .965.787 1.752 1.752 1.752h13.395c.968 0 1.751-.787 1.751-1.752V8.474a1.75 1.75 0 00-1.748-1.751z" fill="#5CB615" fill-rule="nonzero"/></svg>
